Adwaita++-Dark/actions/16/im-ban-user.svg

<svg height="16" viewBox="0 0 16 16" width="16" xmlns="http://www.w3.org/2000/svg">
  <path d="m8 0c-2.2091-.0000055-4 1.7909-4 4 .0000166 2.2091 1.7909 4 4 4 2.2091.000006 4-1.7909 4-4s-1.791-4-4-4zm0 8.9863281c-4.028.0048-7.4965 3.0176719-8 7.0136719h9.7128906c-1.0343-.827-1.7128906-2.082-1.7128906-3.5 0-1.403.6653406-2.6592281 1.6816406-3.4863281-.7385-.0145-1.4943406-.0259438-1.6816406-.0273438z" fill="#e6ddff"/>
  <path d="m12.5 9a3.5 3.5 0 0 0 -3.5 3.5 3.5 3.5 0 0 0 3.5 3.5 3.5 3.5 0 0 0 3.5-3.5 3.5 3.5 0 0 0 -3.5-3.5zm-1.414062 1.378906 1.414062 1.414063 1.414062-1.414063.707032.707032-1.414063 1.414062 1.414063 1.414062-.707032.707032-1.414062-1.414063-1.414062 1.414063-.707032-.707032 1.414063-1.414062-1.414063-1.414062z" fill="#4285f4"/>
</svg>

<svg xmlns="http://www.w3.org/2000/svg" width="16" height="16" version="1.1" viewBox="0 0 16 16">
 <defs>
  <style id="current-color-scheme" type="text/css">
   .ColorScheme-Text { color:#E6DDFF; } .ColorScheme-Highlight { color:#4285f4; }
  </style>
 </defs>
 <path class="ColorScheme-Text" d="M 8 0 C 5.7909 -5.5e-06 4 1.7909 4 4 C 4.0000166 6.2091 5.7909 8 8 8 C 10.2091 8.000006 12 6.2091 12 4 C 12 1.7909 10.209 0 8 0 z M 8 8.9863281 C 3.972 8.9911281 0.5035 12.004 0 16 L 9.7128906 16 C 8.6785906 15.173 8 13.918 8 12.5 C 8 11.097 8.6653406 9.8407719 9.6816406 9.0136719 C 8.9431406 8.9991719 8.1873 8.9877281 8 8.9863281 z" style="fill:currentColor"/>
 <path class="ColorScheme-Highlight" d="M 12.5 9 A 3.5 3.5 0 0 0 9 12.5 A 3.5 3.5 0 0 0 12.5 16 A 3.5 3.5 0 0 0 16 12.5 A 3.5 3.5 0 0 0 12.5 9 z M 11.085938 10.378906 L 12.5 11.792969 L 13.914062 10.378906 L 14.621094 11.085938 L 13.207031 12.5 L 14.621094 13.914062 L 13.914062 14.621094 L 12.5 13.207031 L 11.085938 14.621094 L 10.378906 13.914062 L 11.792969 12.5 L 10.378906 11.085938 L 11.085938 10.378906 z" style="fill:currentColor;"/>
</svg>
